X: 5
T: Miss McDonald
R: reel
M: 4/4
L: 1/8
K: Dmaj
|:FDDF EDDG|FABc d2cd|eEEF GFED|1 FABc dBAG:|2 FABc dBAF||
|:~D2DB, B,A,A,B,|D2EF GFEF|~D2DB, B,A,A,A|BdAF GFEF:|
DFAc dcBA|BABc dcBA|DFAc dcBA|Bdce dBAF|
DFAc dcBA|BABc dcdB|ecdB cABG|Bdce dBAF||
|:BdAF GFEF|DA,DE FDFA|BdAF GFEF|DB,B,A, B,DD2:|

